src/assets/img/galvanicMode.svg

<svg width="108" height="33" viewBox="0 0 108 33" fill="none" xmlns="http://www.w3.org/2000/svg">
<rect width="108" height="33" rx="4" fill="#FAF9FF"/>
<path d="M14.7342 15.2227H16.2928C16.035 13.5586 14.5877 12.3984 12.7186 12.3984C10.4979 12.3984 8.83383 14.0332 8.83969 16.7578C8.83383 19.4473 10.4217 21.1172 12.7655 21.1172C14.8631 21.1172 16.3631 19.7637 16.3631 17.5781V16.5586H12.9178V17.7656H14.8866C14.8631 18.9727 14.0487 19.7461 12.7655 19.7461C11.3475 19.7461 10.369 18.6738 10.3748 16.7461C10.369 14.8359 11.3651 13.7695 12.7303 13.7695C13.7616 13.7695 14.4588 14.3203 14.7342 15.2227ZM18.1945 21L18.8977 18.9023H22.091L22.8 21H24.4289L21.4289 12.5156H19.5539L16.5656 21H18.1945ZM19.3078 17.6719L20.4563 14.25H20.5266L21.6809 17.6719H19.3078ZM25.0767 21H30.3502V19.7109H26.6002V12.5156H25.0767V21ZM31.455 12.5156H29.7792L32.7675 21H34.6425L37.6425 12.5156H35.9667L33.7519 19.207H33.6581L31.455 12.5156ZM38.3723 21L39.0755 18.9023H42.2688L42.9778 21H44.6067L41.6067 12.5156H39.7317L36.7434 21H38.3723ZM39.4856 17.6719L40.6341 14.25H40.7044L41.8587 17.6719H39.4856ZM52.2272 12.5156H50.7155V18.3164H50.6334L46.6373 12.5156H45.2545V21H46.778V15.1992H46.8483L50.8678 21H52.2272V12.5156ZM54.9609 12.5156H53.4375V21H54.9609V12.5156ZM61.9017 15.375H63.4369C63.1732 13.4883 61.7259 12.3984 59.8509 12.3984C57.6302 12.3984 55.9662 14.0156 55.972 16.7578C55.9662 19.4941 57.6127 21.1172 59.8509 21.1172C61.8607 21.1172 63.2025 19.8164 63.4369 18.1875H61.9017C61.6966 19.1836 60.8822 19.7461 59.8744 19.7461C58.4916 19.7461 57.5013 18.709 57.5072 16.7578C57.5013 14.8359 58.4857 13.7695 59.8744 13.7695C60.9056 13.7695 61.7201 14.3555 61.9017 15.375ZM66.877 12.5156V21H68.3536V15.1406H68.4239L70.7794 20.9766H71.8692L74.2247 15.1641H74.3067V21H75.7716V12.5156H73.8966L71.377 18.6797H71.2716L68.752 12.5156H66.877ZM84.5522 16.7578C84.558 14.0156 82.8823 12.3984 80.6616 12.3984C78.4291 12.3984 76.7651 14.0156 76.7709 16.7578C76.7651 19.4941 78.4291 21.1172 80.6616 21.1172C82.8823 21.1172 84.558 19.5 84.5522 16.7578ZM78.3061 16.7578C78.3002 14.8184 79.2787 13.7695 80.6616 13.7695C82.0502 13.7695 83.0229 14.8184 83.017 16.7578C83.0229 18.6973 82.0502 19.7461 80.6616 19.7461C79.2787 19.7461 78.3002 18.6973 78.3061 16.7578ZM88.4344 21C91.0125 21 92.5418 19.4004 92.5477 16.7461C92.5418 14.1035 91.0125 12.5156 88.4812 12.5156H85.5516V21H88.4344ZM87.075 19.6758V13.8398H88.3992C90.1277 13.834 91.0242 14.8008 91.0242 16.7461C91.0242 18.7031 90.1277 19.6816 88.3523 19.6758H87.075ZM93.5353 21H99.0783V19.7109H95.0587V17.3906H98.7619V16.1133H95.0587V13.793H99.0548V12.5156H93.5353V21Z" fill="#55576F"/>
<rect x="0.418103" y="0.418103" width="107.164" height="32.1638" rx="3.5819" stroke="url(#paint0_linear_1095_14644)" stroke-opacity="0.5" stroke-width="0.836207"/>
<defs>
<linearGradient id="paint0_linear_1095_14644" x1="101.483" y1="27.6964" x2="4.38494" y2="13.5471" gradientUnits="userSpaceOnUse">
<stop stop-color="#BDA8D9"/>
<stop offset="1" stop-color="#F5F0FF"/>
</linearGradient>
</defs>
</svg>

<svg width="108" height="33" fill="none" xmlns="http://www.w3.org/2000/svg"><rect width="108" height="33" rx="4" fill="#FAF9FF"/><path d="M14.7 15.2h1.6c-.3-1.6-1.7-2.8-3.6-2.8-2.2 0-3.9 1.6-3.9 4.4 0 2.6 1.6 4.3 4 4.3 2.1 0 3.6-1.3 3.6-3.5v-1H13v1.2h1.9c0 1.2-.9 1.9-2.1 1.9-1.5 0-2.4-1-2.4-3 0-1.9 1-2.9 2.3-2.9 1.1 0 1.8.5 2 1.4zm3.5 5.8l.7-2.1H22l.8 2.1h1.6l-3-8.5h-1.8l-3 8.5h1.6zm1.1-3.3l1.2-3.4 1.2 3.4h-2.4zM25 21h5.4v-1.3h-3.8v-7.2H25V21zm6.5-8.5h-1.7l3 8.5h1.8l3-8.5H36l-2.2 6.7h-.1l-2.2-6.7zm6.9 8.5l.6-2.1h3.3L43 21h1.6l-3-8.5h-1.9l-3 8.5h1.7zm1.1-3.3l1.1-3.4h.1l1.2 3.4h-2.4zm12.7-5.2h-1.5v5.8h-.1l-4-5.8h-1.3V21h1.5v-5.8l4.1 5.8h1.3v-8.5zm2.8 0h-1.6V21H55v-8.5zm6.9 2.9h1.5c-.2-1.9-1.7-3-3.5-3-2.3 0-3.9 1.6-3.9 4.4 0 2.7 1.6 4.3 3.9 4.3 2 0 3.3-1.3 3.5-2.9h-1.5c-.2 1-1 1.5-2 1.5-1.4 0-2.4-1-2.4-2.9 0-2 1-3 2.4-3 1.1 0 1.8.6 2 1.6zm5-2.9V21h1.5v-5.9l2.4 5.9h1.1l2.3-5.8h.1V21h1.5v-8.5h-1.9l-2.5 6.2h-.1l-2.5-6.2h-1.9zm17.7 4.3c0-2.8-1.7-4.4-3.9-4.4-2.3 0-3.9 1.6-3.9 4.4 0 2.7 1.6 4.3 3.9 4.3 2.2 0 3.9-1.6 3.9-4.3zm-6.3 0c0-2 1-3 2.4-3 1.3 0 2.3 1 2.3 3 0 1.9-1 2.9-2.3 2.9-1.4 0-2.4-1-2.4-2.9zM88.4 21c2.6 0 4.1-1.6 4.1-4.3 0-2.6-1.5-4.2-4-4.2h-2.9V21h2.8zM87 19.7v-5.9h1.4c1.7 0 2.6 1 2.6 2.9 0 2-.9 3-2.6 3H87zm6.5 1.3H99v-1.3h-4v-2.3h3.8v-1.3H95v-2.3h4v-1.3h-5.5V21z" fill="#55576F"/><rect x=".4" y=".4" width="107.164" height="32.164" rx="3.582" stroke="url(#paint0_linear_1095_14644)" stroke-opacity=".5" stroke-width=".836"/><defs><linearGradient id="paint0_linear_1095_14644" x1="101.483" y1="27.696" x2="4.385" y2="13.547" gradientUnits="userSpaceOnUse"><stop stop-color="#BDA8D9"/><stop offset="1" stop-color="#F5F0FF"/></linearGradient></defs></svg>
